X:1007_Jumplines and repetitions
F:1007_Jumplines_and_repetitions
T:Jumplines and repetitions
C:
S:
M:4/4
L:1/4
Q:1/4=120
K:C
I: score T1 
I: hn.print
I: transpose 0
%
I: barfoo
V:T1 clef=treble-8 name="Sopran" snm="S"
[V:T1] zAAA |:BBBB |: cccc [1 zddd :| ["2. Mal" eeee "^@@2" :|["3. Mal" ffff|] cccc :| dddd "^@@5" "^@@5" :| eeee "^@@-10"  :|

%%%%zupfnoter.config
{
 "abc_parser" : "ABC2SVG",
 "produce":[0]
} 

